src/svg/search.svg

<svg className="search-svg" xmlns="http://www.w3.org/2000/svg" width="100" height="100">
    <path fill="currentColor" fill-rule="evenodd" d="M7.008 34.984c0-15.75 12.77-28.393 28.52-28.393 15.751 0 28.52 12.643 28.52 28.393 0 15.751-12.769 28.394-28.52 28.394S7.008 50.735 7.008 34.984m-5.82.125C1.188 16.114 16.511.791 35.506.791c18.994 0 34.318 15.324 34.318 34.318 0 18.995-15.324 34.318-34.318 34.318-18.995 0-34.318-15.323-34.318-34.318z"/>
    <path fill="currentColor" fill-rule="evenodd" d="M58.857 57.461c3.566-3.076 5.182 2.038 13.667 8.749 22.551 17.835 32.83 19.804 24.016 29.771-8.836 9.99-15.182-2.686-30.849-23.603-6.558-8.755-10.581-11.685-6.834-14.917z"/>
</svg>

<?xml version="1.0" encoding="utf-8"?>
<!-- Generator: Moho 12.5.1 build 22447 -->
<!DOCTYPE svg PUBLIC "-//W3C//DTD SVG 1.1//EN" "http://www.w3.org/Graphics/SVG/1.1/DTD/svg11.dtd">
<svg version="1.1" id="Frame_0" xmlns="http://www.w3.org/2000/svg" xmlns:xlink="http://www.w3.org/1999/xlink" width="100px" height="100px">
<path fill="#000000" fill-rule="evenodd" stroke="none" d="M 7.008 34.984 C 7.008 19.234 19.778 6.591 35.528 6.591 C 51.279 6.591 64.048 19.234 64.048 34.984 C 64.048 50.735 51.279 63.378 35.528 63.378 C 19.777 63.378 7.008 50.735 7.008 34.984 M 1.188 35.109 C 1.188 16.114 16.511 0.791 35.506 0.791 C 54.500 0.791 69.824 16.115 69.824 35.109 C 69.824 54.104 54.500 69.427 35.506 69.427 C 16.511 69.427 1.188 54.104 1.188 35.109 Z"/>
<path fill="#000000" fill-rule="evenodd" stroke="none" d="M 58.857 57.461 C 62.423 54.385 64.039 59.499 72.524 66.210 C 95.075 84.045 105.354 86.014 96.540 95.981 C 87.704 105.971 81.358 93.295 65.691 72.378 C 59.133 63.623 55.110 60.693 58.857 57.461 Z"/>
</svg>
